X: 4
M:9/8
L:1/8
K:G
c2 d ecA A2 c|B2 c dBG G2 B|c2 d ecA ABc|BAG AGE G2 E|
c2 d ecA A2 c|B2 c dBG G2 B|c2 d e2 f g2 e|dBG AGE G2 E||

